!!!OTL: Taonan Xiaodiao
!!!ARE: Asia, China,ÿShandong Huangxian
!! III, 353
!!!SCT: C1773
!!!YEM: Copyright 1995, estate of Helmut Schaffrath.
**kern
*ICvox
*Ivox
*M2/4
*k[f#c#]
*D:
{16b
16a
=1
8dd
16ee
16dd
16b
16a
16b
16dd
=2
8a
4a}
{16b
16a
=3
8dd
16ee
16dd
16b
16a
16b
16dd
=4
8a
4.a}
=5
{8f#
8a
8b
16a
16b
=6
8dd
16ee
16dd
8b
8a
=7
8a
8f#
16e
16d
16e
16f#
=8
8a
4.a}
=9
{8f#
16f#
16a
8b
16a
16b
=10
8dd
16ee
16dd
8b
8a
=11
8f#
16f#
16a
16b
16a
16b
16dd
=12
8a
16a
16b
8g
8f#}
=13
{8e
8d
8e
16e
16f#
=14
8a
4g
8f#
=15
8.e
16g
8f#
8e
=16
2d}
=17
{8.f#
16a
16b
16a
16b
16dd
=18
8a
16a
16b
8g
8f#
=19
8e
8d
8e
16e
16f#
=20
8a
4g
8a
=21
8.e
16g
8f#
8e
=22
2d}
==
!!!AGN: Xiaodiao, Wugeng diao
!!!AMT: simple duple
!!!AIN: vox
!!!EED: Helmut Schaffrath
!!!EEV: 1.0
*-
